src/xmb/monochrome/history.svg

<?xml version="1.0" encoding="UTF-8" standalone="no"?>
<!-- Generator: Adobe Illustrator 16.0.0, SVG Export Plug-In . SVG Version: 6.00 Build 0)  -->

<svg
   xmlns:dc="http://purl.org/dc/elements/1.1/"
   xmlns:cc="http://creativecommons.org/ns#"
   xmlns:rdf="http://www.w3.org/1999/02/22-rdf-syntax-ns#"
   xmlns:svg="http://www.w3.org/2000/svg"
   xmlns="http://www.w3.org/2000/svg"
   xmlns:sodipodi="http://sodipodi.sourceforge.net/DTD/sodipodi-0.dtd"
   xmlns:inkscape="http://www.inkscape.org/namespaces/inkscape"
   version="1.1"
   id="svg2"
   inkscape:export-filename="/home/kivutar/libretro-super/retroarch/media/assets/xmb/monochrome/png/history.png"
   inkscape:export-xdpi="360"
   inkscape:version="0.48.5 r10040"
   inkscape:export-ydpi="360"
   sodipodi:docname="history.svg"
   x="0px"
   y="0px"
   width="64px"
   height="64px"
   viewBox="0 128 64 64"
   enable-background="new 0 128 64 64"
   xml:space="preserve"><metadata
     id="metadata8"><rdf:RDF><cc:Work
         rdf:about=""><dc:format>image/svg+xml</dc:format><dc:type
           rdf:resource="http://purl.org/dc/dcmitype/StillImage" /><dc:title></dc:title></cc:Work></rdf:RDF></metadata><defs
     id="defs6" /><sodipodi:namedview
     pagecolor="#808080"
     bordercolor="#666666"
     borderopacity="1"
     objecttolerance="10"
     gridtolerance="10"
     guidetolerance="10"
     inkscape:pageopacity="0"
     inkscape:pageshadow="2"
     inkscape:window-width="1440"
     inkscape:window-height="836"
     id="namedview4"
     showgrid="true"
     inkscape:zoom="7.375"
     inkscape:cx="66.482606"
     inkscape:cy="32.005268"
     inkscape:window-x="0"
     inkscape:window-y="27"
     inkscape:window-maximized="1"
     inkscape:current-layer="svg2"><inkscape:grid
       type="xygrid"
       id="grid2985"
       empspacing="4"
       visible="true"
       enabled="true"
       snapvisiblegridlinesonly="true" /></sodipodi:namedview><path
     style="fill:#ffffff"
     d="M 32 5 C 9.585 5 5 9.553 5 32 C 5 54.447 9.514 59 32 59 C 54.489 59 59 54.456 59 32 C 59 9.542 54.415 5 32 5 z M 32 10.96875 C 43.586135 10.96875 53 20.41386 53 32 C 53 43.58614 43.586135 53 32 53 C 20.413865 53 11 43.58614 11 32 C 11 20.41386 20.413865 10.96875 32 10.96875 z M 32 13 C 21.494745 13 13 21.49474 13 32 C 13 42.50525 21.494745 50.96875 32 50.96875 C 42.505255 50.96875 51 42.50525 51 32 C 51 21.49474 42.505255 13 32 13 z M 32 15 C 32.552285 15 33 15.447715 33 16 L 33 29.1875 C 33.117771 29.230117 33.233168 29.287248 33.34375 29.34375 L 33.28125 29.28125 L 39.28125 23.28125 C 39.462214 23.100286 39.723858 23 40 23 C 40.552285 23 41 23.447715 41 24 C 41 24.276142 40.899714 24.537786 40.71875 24.71875 L 34.71875 30.71875 L 34.65625 30.65625 C 34.864241 31.063318 35 31.515351 35 32 C 35 33.64501 33.64501 35 32 35 C 30.35499 35 29 33.64501 29 32 C 29 30.707982 29.844255 29.605718 31 29.1875 L 31 16 C 31 15.447715 31.447715 15 32 15 z M 32 31 C 31.435871 31 31 31.43587 31 32 C 31 32.56413 31.435871 33 32 33 C 32.564129 33 33 32.56413 33 32 C 33 31.43587 32.564129 31 32 31 z "
     transform="translate(0,128)"
     id="Settings_1_" /></svg>

<svg xmlns="http://www.w3.org/2000/svg" xml:space="preserve" width="64" height="64" viewBox="0 128 64 64"><path d="M32 5C9.585 5 5 9.553 5 32s4.514 27 27 27c22.489 0 27-4.544 27-27C59 9.542 54.415 5 32 5m0 5.969c11.586 0 21 9.445 21 21.031s-9.414 21-21 21-21-9.414-21-21 9.414-21.031 21-21.031M32 13c-10.505 0-19 8.495-19 19s8.495 18.969 19 18.969S51 42.505 51 32s-8.495-19-19-19m0 2a1 1 0 0 1 1 1v13.188c.118.042.233.1.344.156l-.063-.063 6-6A1.02 1.02 0 0 1 40 23a1 1 0 0 1 1 1c0 .276-.1.538-.281.719l-6 6-.063-.063c.208.407.344.86.344 1.344 0 1.645-1.355 3-3 3s-3-1.355-3-3c0-1.292.844-2.394 2-2.812V16a1 1 0 0 1 1-1m0 16c-.564 0-1 .436-1 1s.436 1 1 1 1-.436 1-1-.436-1-1-1" style="fill:#fff" transform="translate(0 128)"/></svg>
